Obsidian-SemiLight/actions/24s/go-jump-definition.svg

<svg viewBox="0 0 24 24" xmlns="http://www.w3.org/2000/svg"><path d="m9 4-5 2 6 2 5-2zm-5 3v6l5 2v-6zm11 0-5 2v6l5-2zm3 0-1 1-1 1 2 2v-1.2851562c.624415.9430752 1 2.0638082 1 3.2851562 0 3.324-2.676 6-6 6v1c3.878 0 7-3.122 7-7 0-1.909113-.767701-3.6238746-2-4.8828125z" fill="#4d4d4d"/></svg>

<svg xmlns="http://www.w3.org/2000/svg" viewBox="0 0 24 24">
  <defs id="defs3051">
    <style type="text/css" id="current-color-scheme">
      .ColorScheme-Text {
        color:#4d4d4d;
      }
      </style>
  </defs>
 <path style="fill:currentColor;fill-opacity:1;stroke:none" 
     d="M 9 4 L 4 6 L 10 8 L 15 6 L 9 4 z M 4 7 L 4 13 L 9 15 L 9 9 L 4 7 z M 15 7 L 10 9 L 10 15 L 15 13 L 15 7 z M 18 7 L 17 8 L 16 9 L 18 11 L 18 9.7148438 C 18.624415 10.657919 19 11.778652 19 13 C 19 16.324 16.324 19 13 19 L 13 20 C 16.878 20 20 16.878 20 13 C 20 11.090887 19.232299 9.3761254 18 8.1171875 L 18 7 z "
     class="ColorScheme-Text"
     />
</svg>
